X: 35262
T: Rose In Full Bloom, The
R: reel
M: 4/4
K: Fmajor
|cBAG F2 F2|F2 AF EFGd|cBAG F2 c2|defd cBAB|
cBAG F2 F2|F2 AF EFGd|cBAG F2 c2|
defd cBAc||f3 g afef|gece gece|
f3g afef|gece f2 f2|f3 g afef|gece gece|
fgaf gece|fedc defd|f8||

